X: 1
T: Speed The Plough
R: reel
S: Fiddle Hell Online 2021-11-6
S: https://thesession.org/tunes/901
Z: 2022 John Chambers <jc:trillian.mit.edu>
M: 4/4
L: 1/8
K: D
|:\
d3A BAFB | AF~F2 EFDE | F2AF ~G3B | ABdg fgfe |
d3A BAFB | AF~F2 EFDE | F2AF GABG |1 ABdg fedc :|2 ABde fdde ||
|:\
f2ab afdf | g2fg ed (3Bcd | a2ab afdB | ABde fe~e2 | f2ab afdf |
g2fg edBA |1 F2AF GABG | ABdg fddg :|2 F2AF ~G3B | ABdg fgfe ||
